X:1
T:A Cry from Macedonia
T:William Batchelder Bradbury
T:A Cry from Macedonia
T:Public Domain
T:Public Domain
T:Public Domain
T:Public Domain
C:William Batchelder Bradbury
Z:Public Domain
%%score ( 1 2 ) ( 3 4 )
L:1/8
M:4/4
K:Eb
V:1 treble 
V:2 treble 
V:3 bass 
V:4 bass 
V:1
 x8 |: E>E | [EG]>[EG] [EG]>[EG] [EG]>[EF] E>[EG] | [GB]4 [Ac]3 [Ac] | [GB]2 [EG]>[DF] E2 [EG]2 | %5
w: |1.~There’s a|Ma- ce- don- ia— Come and help us;|light of the|Gos- pel bring, oh come!|
w: |~~~~O ye|of the cross, be up and do- ing,|mem- ber the|great com- mand! a- way!|
w: |2.~Oh, how|ful their feet up- on the mount- ains,|tid- ings of|peace who bring, who bring,|
w: |~~~~Then, ye|of the cross, be up and do- ing,|work in your|Mas- ter’s field, a- way!|
w: |3.~Ye’ve en-|in the ar- my of the faith- ful,|he- roes the|bat- tle fight! a- way!|
w: |~~~~With the|of the cross un- furled be- fore you,|sword of the|Spir- it wield! a- way!|
 [DF]2 [DB]2 [DB]2 E>F | [EG]>[EG] [EG]>[EG] [EG]>[EF] E>[EG] | [GB]4 [Ac]3 [Ac] | %8
w: us hear the joy- ful|of sal- va- tion, We thirst for the|ing spring. *|
w: ye forth and preach the|ev- ’ry crea- ture, Pro- claim it in|’ry land. They|
w: the na- tions of the|sit in dark- ness, And tell them of|on’s King: *|
w: the trump- et! sound the|of sal- va- tion! The Lord is your|and Shield. Let|
w: are foes on ev- ery|will as- sail you, Then gird on your|mor bright; *|
w: shall con- quer through His|Who hath loved you, The Lord is your|and Shield. Ye|
 [GB]2 E>[EF] [EG]2 [DF]2 | E6 :|"^Refrain" [EB]>[EB] | [Ec]>[Ec] [Ec]>[Ec] [Ec]2 [Ee]>[Ec] | %12
w: ||||
w: shall ga- ther from the|They|ga- ther|from the west, With the pa- tri-|
w: ||||
w: the dist- ant isles be|Let|hail the|Sav- ior’s birth, And the news of|
w: ||||
w: are march- ing to the|Where|saints in|glo- ry stand, And the just for|
 [EB]>[EB] [EB]>[EB] [EB]2 [Ec]>[EB] | [DA]2 F2 [EG]2 E2 | [DF]6 [EB]>[EB] | %15
w: |||
w: archs of old; And the ran- somed|shall re- turn To|doms of the|
w: |||
w: par- don free, Till the know- ledge|of the truth Shall|to all the|
w: |||
w: joy shall sing: Ye by faith may|bring it nigh; Ye|it by and|
 [Ec]>[Ec] [Ec]>[Ec] [Ec]2 [Ee]>[Ec] | [EB]>[EB] [EB]>[EB] [EB]2 [Ec]>[EB] | %17
w: ||
w: blest, With their harps and crowns of|gold. * * * * * *|
w: ||
w: earth, As the wa- ters o’er the|sea. * * * * * *|
w: ||
w: by, And your shouts of tri- umph|ring. * * * * * *|
 [DB]2 F2 [EG]2 [E=A]2 | [DB]6 |] %19
w: ||
w: ||
w: ||
w: ||
w: ||
w: ||
V:2
 x8 |: E>E | x6 E3/2 x/ | x8 | x4 E2 x2 | x6 E>F | x6 E3/2 x/ | x8 | x2 E3/2 x9/2 | E6 :| x2 | x8 | %12
w: |cry from|The||Let|tid- ings|liv-||||||
w: |her- alds|Re-||Go|Word to|ev-||east,|shall|||
w: |beau- ti-|The||To|earth who|Zi-||||||
w: |her- alds|Go||Sound|trump- et|Strength||glad,|them|||
w: |list- ed|Like||There|hand that|ar-||||||
w: |ban- ner|The||Ye|mer- cy|Strength||land,|the|||
 x8 | x2 F2 E2 x2 | x8 | x8 | x8 | x2 F2 x4 | x6 |] %19
w: |||||||
w: |the king-||||||
w: |||||||
w: |ex- tend||||||
w: |||||||
w: |shall reach||||||
V:3
 x8 |: [E,G,]>[E,A,] | [E,B,]>[E,B,] [E,B,]>[E,B,] [E,B,]>[E,A,] [E,G,]>[E,B,] | %3
 [E,E]4 [A,,E]3 [A,,E] | [E,E]2 [E,B,]>[E,A,] [E,G,]2 [E,B,]2 | %5
 [B,,B,]2 [B,,F,]2 [B,,B,]2 [E,G,]>[E,A,] | %6
 [E,B,]>[E,B,] [E,B,]>[E,B,] [E,B,]>[E,A,] [E,G,]>[E,B,] | [E,E]4 [A,,E]3 [A,,E] | %8
 [E,E]2 [C,G,]>[C,A,] [B,,B,]2 [B,,A,]2 | [E,G,]6 :| [E,G,]>[E,G,] | A,>A, A,>A, A,2 [A,C]>A, | %12
 [E,G,]>[E,G,] [E,G,]>[E,G,] [E,G,]2 [E,A,]>[E,G,] | F,2 [D,B,]2 [E,B,]2 [G,B,]2 | %14
 B,6 [E,G,]>[E,G,] | A,>A, A,>A, A,2 [A,C]>A, | [E,G,]>[E,G,] [E,G,]>[E,G,] [E,G,]2 [E,A,]>[E,G,] | %17
 F,2 [F,D]2 [F,C]2 [F,C]2 | [B,,B,]6 |] %19
V:4
 x8 |: x2 | x8 | x8 | x8 | x8 | x8 | x8 | x8 | x6 :| x2 | A,>A, A,>A, A,2 A,/ x3/2 | x8 | F,2 x6 | %14
 B,6 x2 | A,>A, A,>A, A,2 A,/ x3/2 | x8 | F,2 x6 | x6 |] %19

